third_party/noto/noto_2/emoji_u1f3ac.svg

<svg enable-background="new 0 0 128 128" version="1.1" viewBox="0 0 128 128" xmlns="http://www.w3.org/2000/svg"><path d="m116.04 124h-101.59c-1.32 0-2.4-1.07-2.4-2.4v-68.01h106.38v68.01c0 1.33-1.07 2.4-2.39 2.4z" fill="#424242"/><rect x="13.93" y="48.54" width="104.5" height="7.59"/><path d="M12.06,53.59v68.58c0,1.01,0.82,1.82,1.82,1.82h0.15c1.01,0,1.82-0.82,1.82-1.82V53.59H12.06z" fill="#616161"/><rect x="10.03" y="36.86" width="110.44" height="16.74" fill="#eee"/><rect x="10.03" y="36.86" width="110.44" height="2.15" fill="#F5F5F5"/><polygon points="67.44 36.86 50.7 53.59 66.63 53.59 83.37 36.86" fill="#424242"/><polygon points="95.48 36.86 78.74 53.59 94.67 53.59 111.41 36.86" fill="#424242"/><polygon points="39.65 36.86 22.91 53.59 38.84 53.59 55.08 37.35 55.08 36.86" fill="#424242"/><polygon points="120.46 40.39 107.26 53.59 120.46 53.59" fill="#424242"/><rect x="10.03" y="36.86" width="110.44" height="2.15" fill="#fff" opacity=".4"/><rect transform="matrix(.989 -.1476 .1476 .989 -2.3208 9.5787)" x="8.17" y="12.06" width="110.44" height="16.74" fill="#eee"/><rect transform="matrix(.989 -.1476 .1476 .989 -1.2681 9.3408)" x="7.09" y="12.14" width="110.44" height="2.15" fill="#F5F5F5"/><polygon points="66.77 28.41 47.74 14.32 63.5 11.97 82.52 26.05" fill="#424242"/><polygon points="94.45 24.25 75.42 10.17 91.18 7.82 110.2 21.9" fill="#424242"/><polygon points="39.33 32.5 20.31 18.41 36.06 16.06 54.52 29.73 54.59 30.22" fill="#424242"/><polygon points="118.71 17.06 103.71 5.95 116.76 4" fill="#424242"/><polygon points="9.71 22.42 25.94 34.44 11.82 36.58" fill="#424242"/><rect transform="matrix(.989 -.1476 .1476 .989 -1.2681 9.3408)" x="7.09" y="12.14" width="110.44" height="2.15" fill="#fff" opacity=".4"/><polygon points="10.02 36.85 11.85 36.85 9.36 20.06 7.55 20.33" fill="#9E9E9E"/><line x1="23.94" x2="110.8" y1="69.52" y2="69.52" fill="none" stroke="#fff" stroke-linecap="round" stroke-miterlimit="10" stroke-width="2.0827"/><line x1="23.94" x2="110.8" y1="84.63" y2="84.63" fill="none" stroke="#fff" stroke-linecap="round" stroke-miterlimit="10" stroke-width="2.0827"/><line x1="23.94" x2="110.8" y1="99.74" y2="99.74" fill="none" stroke="#fff" stroke-linecap="round" stroke-miterlimit="10" stroke-width="2.0827"/><line x1="51.85" x2="51.85" y1="115.51" y2="99.74" fill="none" stroke="#fff" stroke-linecap="round" stroke-miterlimit="10" stroke-width="2.0827"/><line x1="82.89" x2="82.89" y1="115.51" y2="99.74" fill="none" stroke="#fff" stroke-linecap="round" stroke-miterlimit="10" stroke-width="2.0827"/><rect x="10.03" y="36.85" width="1.82" height="16.75" fill="#BDBDBD"/><path d="m35.3 53.59h-20.43c-1.67 0-3.02-1.35-3.02-3.02v-21.14c0-3.47 5.73-5.6 9.52-2.37l17.16 19.16c1.9 1.9-0.54 7.37-3.23 7.37z" fill="#616161"/><path d="m36.84 53.59h-18.08c-2.48 0-4.5-2.01-4.5-4.5v-18.08c0-4.15 5.01-6.22 7.95-3.29l17.93 17.93c2.93 2.93 0.85 7.94-3.3 7.94z" fill="#424242"/><circle cx="19.74" cy="47.74" r="2.16" fill="#616161"/><circle cx="19.74" cy="34.25" r="2.16" fill="#616161"/><circle cx="34.75" cy="47.74" r="2.16" fill="#616161"/></svg>

<?xml version="1.0" encoding="utf-8"?>
<!-- Generator: Adobe Illustrator 25.2.3, SVG Export Plug-In . SVG Version: 6.00 Build 0)  -->
<svg version="1.1" id="Layer_2" xmlns="http://www.w3.org/2000/svg" xmlns:xlink="http://www.w3.org/1999/xlink" x="0px" y="0px"
	 viewBox="0 0 128 128" style="enable-background:new 0 0 128 128;" xml:space="preserve">
<g>
	<path style="fill:#424242;" d="M116.04,124H14.45c-1.32,0-2.4-1.07-2.4-2.4V53.59h106.38v68.01
		C118.43,122.93,117.36,124,116.04,124z"/>
	<rect x="13.93" y="48.54" width="104.5" height="7.59"/>
	<path style="fill:#616161;" d="M12.06,53.59v68.58c0,1.01,0.82,1.82,1.82,1.82h0.15c1.01,0,1.82-0.82,1.82-1.82V53.59H12.06z"/>
	<g>
		<rect x="10.03" y="36.86" style="fill:#EEEEEE;" width="110.44" height="16.74"/>
		<rect x="10.03" y="36.86" style="fill:#F5F5F5;" width="110.44" height="2.15"/>
		<g>
			<g>
				<polygon style="fill:#424242;" points="67.44,36.86 50.7,53.59 66.63,53.59 83.37,36.86 				"/>
			</g>
			<g>
				<polygon style="fill:#424242;" points="95.48,36.86 78.74,53.59 94.67,53.59 111.41,36.86 				"/>
			</g>
			<polygon style="fill:#424242;" points="39.65,36.86 22.91,53.59 38.84,53.59 55.08,37.35 55.08,36.86 			"/>
			<polygon style="fill:#424242;" points="120.46,40.39 107.26,53.59 120.46,53.59 			"/>
		</g>
		<rect x="10.03" y="36.86" style="opacity:0.4;fill:#FFFFFF;" width="110.44" height="2.15"/>
	</g>
	<g>
		
			<rect x="8.17" y="12.06" transform="matrix(0.989 -0.1476 0.1476 0.989 -2.3208 9.5787)" style="fill:#EEEEEE;" width="110.44" height="16.74"/>
		
			<rect x="7.09" y="12.14" transform="matrix(0.989 -0.1476 0.1476 0.989 -1.2681 9.3408)" style="fill:#F5F5F5;" width="110.44" height="2.15"/>
		<g>
			<g>
				<polygon style="fill:#424242;" points="66.77,28.41 47.74,14.32 63.5,11.97 82.52,26.05 				"/>
			</g>
			<g>
				<polygon style="fill:#424242;" points="94.45,24.25 75.42,10.17 91.18,7.82 110.2,21.9 				"/>
			</g>
			<polygon style="fill:#424242;" points="39.33,32.5 20.31,18.41 36.06,16.06 54.52,29.73 54.59,30.22 			"/>
			<polygon style="fill:#424242;" points="118.71,17.06 103.71,5.95 116.76,4 			"/>
			<polygon style="fill:#424242;" points="9.71,22.42 25.94,34.44 11.82,36.58 			"/>
		</g>
		
			<rect x="7.09" y="12.14" transform="matrix(0.989 -0.1476 0.1476 0.989 -1.2681 9.3408)" style="opacity:0.4;fill:#FFFFFF;" width="110.44" height="2.15"/>
		<polygon style="fill:#9E9E9E;" points="10.02,36.85 11.85,36.85 9.36,20.06 7.55,20.33 		"/>
	</g>
	
		<line style="fill:none;stroke:#FFFFFF;stroke-width:2.0827;stroke-linecap:round;stroke-miterlimit:10;" x1="23.94" y1="69.52" x2="110.8" y2="69.52"/>
	
		<line style="fill:none;stroke:#FFFFFF;stroke-width:2.0827;stroke-linecap:round;stroke-miterlimit:10;" x1="23.94" y1="84.63" x2="110.8" y2="84.63"/>
	
		<line style="fill:none;stroke:#FFFFFF;stroke-width:2.0827;stroke-linecap:round;stroke-miterlimit:10;" x1="23.94" y1="99.74" x2="110.8" y2="99.74"/>
	
		<line style="fill:none;stroke:#FFFFFF;stroke-width:2.0827;stroke-linecap:round;stroke-miterlimit:10;" x1="51.85" y1="115.51" x2="51.85" y2="99.74"/>
	
		<line style="fill:none;stroke:#FFFFFF;stroke-width:2.0827;stroke-linecap:round;stroke-miterlimit:10;" x1="82.89" y1="115.51" x2="82.89" y2="99.74"/>
	<rect x="10.03" y="36.85" style="fill:#BDBDBD;" width="1.82" height="16.75"/>
	<g>
		<path style="fill:#616161;" d="M35.3,53.59H14.87c-1.67,0-3.02-1.35-3.02-3.02V29.43c0-3.47,5.73-5.6,9.52-2.37l17.16,19.16
			C40.43,48.12,37.99,53.59,35.3,53.59z"/>
		<path style="fill:#424242;" d="M36.84,53.59H18.76c-2.48,0-4.5-2.01-4.5-4.5V31.01c0-4.15,5.01-6.22,7.95-3.29l17.93,17.93
			C43.07,48.58,40.99,53.59,36.84,53.59z"/>
		<circle style="fill:#616161;" cx="19.74" cy="47.74" r="2.16"/>
		<circle style="fill:#616161;" cx="19.74" cy="34.25" r="2.16"/>
		<circle style="fill:#616161;" cx="34.75" cy="47.74" r="2.16"/>
	</g>
</g>
</svg>
